img/warriorjs-text.svg

<?xml version="1.0" encoding="UTF-8"?>
<svg width="800px" height="90px" viewBox="0 0 800 90" version="1.1" xmlns="http://www.w3.org/2000/svg" xmlns:xlink="http://www.w3.org/1999/xlink">
    <!-- Generator: Sketch 49 (51002) - http://www.bohemiancoding.com/sketch -->
    <title>warriorjs-text-dark</title>
    <desc>Created with Sketch.</desc>
    <defs></defs>
    <g id="warriorjs-text-dark" stroke="none" stroke-width="1" fill="none" fill-rule="evenodd">
        <g id="Text-(Dark,-Complete)" fill="#ECEFF4">
            <path d="M60.1899862,34.2052437 C60.1829121,34.2264721 57.456962,42.4052603 55.12,47.3410405 L34.45,90 L32.63,90 L0,0.780346821 L19.24,0.780346821 L32.11,36.2861272 C34.3179766,42.3932473 36.7854773,52.2651405 36.7899938,52.2832121 C36.795102,52.2635906 39.3928059,42.2629166 42.25,36.2861272 L59.28,0 L61.1,0 L78.39,36.2861272 C81.2466954,42.2618734 83.8439913,52.2600999 83.8499896,52.2831969 C83.8562018,52.2584232 86.3227747,42.3911694 88.53,36.2861272 L101.27,0.780346821 L118.95,0.780346821 L86.84,90 L85.02,90 L65.13,47.3410405 C62.7927236,42.4045963 60.1960521,34.2242717 60.1900106,34.2052356 L60.1899862,34.2052437 Z" id="Path"></path>
            <path d="M127,90 L165.87,0 L167.43,0 L207.86,90 L188.75,90 L184.59,79.8979592 L148.71,79.8979592 L144.55,90 L127,90 Z M166.389994,33.0612456 C166.385572,33.0777554 163.787786,42.7750415 161.19,49.0670554 L154.82,64.548105 L178.09,64.548105 L171.72,49.0670554 C169.122027,42.7745884 166.394256,33.0763589 166.390005,33.0612422 L166.389994,33.0612456 Z" id="Combined-Shape"></path>
            <path d="M281.93,61.9411765 L300.26,90 L279.2,90 L264.64,67.2352941 C262.95,67.5 261.13,67.6323529 259.44,67.6323529 L253.2,67.6323529 L253.2,90 L235,90 L235,0 L259.44,0 C284.14,0 298.96,12.0441176 298.96,34.0147059 C298.96,48.0441176 292.85,56.9117647 281.93,61.9411765 Z M253.2,51.4852941 L258.92,51.4852941 C273.74,51.4852941 280.24,46.7205882 280.24,34.0147059 C280.24,21.3088235 273.48,16.2794118 258.92,16.2794118 L253.2,16.2794118 L253.2,51.4852941 Z" id="Combined-Shape"></path>
            <path d="M377.93,61.9411765 L396.26,90 L375.2,90 L360.64,67.2352941 C358.95,67.5 357.13,67.6323529 355.44,67.6323529 L349.2,67.6323529 L349.2,90 L331,90 L331,0 L355.44,0 C380.14,0 394.96,12.0441176 394.96,34.0147059 C394.96,48.0441176 388.85,56.9117647 377.93,61.9411765 Z M349.2,51.4852941 L354.92,51.4852941 C369.74,51.4852941 376.24,46.7205882 376.24,34.0147059 C376.24,21.3088235 369.48,16.2794118 354.92,16.2794118 L349.2,16.2794118 L349.2,51.4852941 Z" id="Combined-Shape"></path>
            <polygon id="I" points="432 90 432 0 450.529412 0 450.529412 90"></polygon>
            <path d="M531,90 C505.943182,90 486,70.9169054 486,45 C486,19.0830946 505.943182,0 531,0 C556.056818,0 576,19.0830946 576,45 C576,70.9169054 556.056818,90 531,90 Z M531,73.8825215 C546.852273,73.8825215 557.590909,61.3753582 557.590909,45 C557.590909,28.6246418 546.852273,16.1174785 531,16.1174785 C515.147727,16.1174785 504.409091,28.6246418 504.409091,45 C504.409091,61.3753582 515.147727,73.8825215 531,73.8825215 Z" id="Combined-Shape"></path>
            <path d="M655.93,61.9411765 L674.26,90 L653.2,90 L638.64,67.2352941 C636.95,67.5 635.13,67.6323529 633.44,67.6323529 L627.2,67.6323529 L627.2,90 L609,90 L609,0 L633.44,0 C658.14,0 672.96,12.0441176 672.96,34.0147059 C672.96,48.0441176 666.85,56.9117647 655.93,61.9411765 Z M627.2,51.4852941 L632.92,51.4852941 C647.74,51.4852941 654.24,46.7205882 654.24,34.0147059 C654.24,21.3088235 647.48,16.2794118 632.92,16.2794118 L627.2,16.2794118 L627.2,51.4852941 Z" id="Combined-Shape"></path>
            <path d="M717.37,90 C706.506,90 700.201,84.3599419 697,77.5529753 L708.058,70.8432511 C710.192,74.6357039 712.132,77.8447025 716.788,77.8447025 C721.25,77.8447025 724.063,76.0943396 724.063,69.287373 L724.063,23 L737.643,23 L737.643,69.4818578 C737.643,83.5820029 729.398,90 717.37,90 Z" id="Path"></path>
            <path d="M777.609856,90 C765.063655,90 756.956879,84.0401722 753,76.2539455 L764.002053,69.9096126 C766.897331,74.6197991 770.661191,78.0803443 777.320329,78.0803443 C782.917864,78.0803443 786.488706,75.2926829 786.488706,71.4476327 C786.488706,66.8335725 782.821355,65.1994261 776.644764,62.507891 L773.26694,61.0659971 C763.519507,56.9325681 757.053388,51.7417504 757.053388,40.7833572 C757.053388,30.6901004 764.774127,23 776.837782,23 C785.427105,23 791.603696,25.9799139 796.043121,33.7661406 L785.523614,40.4949785 C783.207392,36.3615495 780.698152,34.7274032 776.837782,34.7274032 C772.880903,34.7274032 770.371663,37.2266858 770.371663,40.4949785 C770.371663,44.5322812 772.880903,46.1664275 778.671458,48.6657102 L782.049281,50.107604 C793.533881,55.010043 800,60.0086083 800,71.2553802 C800,83.3672884 790.445585,90 777.609856,90 Z" id="Path"></path>
        </g>
    </g>
</svg>

<svg width="800" height="90" viewBox="0 0 800 90" xmlns="http://www.w3.org/2000/svg"><path d="M60.19 34.205c-.007.021-2.733 8.2-5.07 13.136L34.45 90h-1.82L0 .78h19.24l12.87 35.506c2.208 6.107 4.675 15.98 4.68 15.997.005-.02 2.603-10.02 5.46-15.997L59.28 0h1.82l17.29 36.286c2.857 5.976 5.454 15.974 5.46 15.997.006-.025 2.473-9.892 4.68-15.997L101.27.78h17.68L86.84 90h-1.82L65.13 47.341c-2.337-4.936-4.934-13.117-4.94-13.136zM127 90l38.87-90h1.56l40.43 90h-19.11l-4.16-10.102h-35.88L144.55 90H127zm39.39-56.939c-.004.017-2.602 9.714-5.2 16.006l-6.37 15.481h23.27l-6.37-15.48c-2.598-6.293-5.326-15.992-5.33-16.007zm115.54 28.88L300.26 90H279.2l-14.56-22.765a34.36 34.36 0 0 1-5.2.397h-6.24V90H235V0h24.44c24.7 0 39.52 12.044 39.52 34.015 0 14.03-6.11 22.897-17.03 27.926zM253.2 51.485h5.72c14.82 0 21.32-4.764 21.32-17.47s-6.76-17.736-21.32-17.736h-5.72v35.206zm124.73 10.456L396.26 90H375.2l-14.56-22.765a34.36 34.36 0 0 1-5.2.397h-6.24V90H331V0h24.44c24.7 0 39.52 12.044 39.52 34.015 0 14.03-6.11 22.897-17.03 27.926zM349.2 51.485h5.72c14.82 0 21.32-4.764 21.32-17.47s-6.76-17.736-21.32-17.736h-5.72v35.206zM432 90V0h18.53v90zm99 0c-25.057 0-45-19.083-45-45s19.943-45 45-45 45 19.083 45 45-19.943 45-45 45zm0-16.117c15.852 0 26.59-12.508 26.59-28.883S546.853 16.117 531 16.117 504.41 28.625 504.41 45 515.147 73.883 531 73.883zm124.93-11.942L674.26 90H653.2l-14.56-22.765a34.36 34.36 0 0 1-5.2.397h-6.24V90H609V0h24.44c24.7 0 39.52 12.044 39.52 34.015 0 14.03-6.11 22.897-17.03 27.926zM627.2 51.485h5.72c14.82 0 21.32-4.764 21.32-17.47s-6.76-17.736-21.32-17.736h-5.72v35.206zM717.37 90c-10.864 0-17.169-5.64-20.37-12.447l11.058-6.71c2.134 3.793 4.074 7.002 8.73 7.002 4.462 0 7.275-1.75 7.275-8.558V23h13.58v46.482c0 14.1-8.245 20.518-20.273 20.518zm60.24 0c-12.546 0-20.653-5.96-24.61-13.746l11.002-6.344c2.895 4.71 6.66 8.17 13.318 8.17 5.598 0 9.169-2.787 9.169-6.632 0-4.614-3.668-6.249-9.844-8.94l-3.378-1.442c-9.747-4.133-16.214-9.324-16.214-20.283 0-10.093 7.721-17.783 19.785-17.783 8.59 0 14.766 2.98 19.205 10.766l-10.52 6.729c-2.316-4.133-4.825-5.768-8.685-5.768-3.957 0-6.466 2.5-6.466 5.768 0 4.037 2.509 5.671 8.3 8.17l3.377 1.443C793.534 55.01 800 60.008 800 71.255 800 83.367 790.446 90 777.61 90z" fill="#ECEFF4" fill-rule="evenodd"/></svg>
